X:1
T:Golden Legs, The
M:C|
L:1/8
%%printtempo 0
Q:160
R:Hornpipe
C:Liz Carroll
K:D
"D"D2FD "Em"E2GE|"F#m"FDEF "G"GA (3Bcd|"Bm"fdAf "Em"ecAe|"G"dBGd "A"AECE|
"D"D2FD "Em"E2GE|"F#m"FDEF "G"GA (3Bcd|"A"efge cAGE |1 EDCE "D"DGFE :|2EDCE "D"D a^ga|
"D"fd (3.d.d.d cdef|"Em"g2fa gefd| "A"cA (3.A.A.A "Em"BG (3.G.G.G|"A"AF (3.F.F.F GEEg|
"D"fd (3.d.d.d cdef|"Em"g2fa gefd| "A"cA (3.A.A.A efge| cAGE "D"D a^ga||
"D"fd (3.d.d.d cdef|"Em"g2fa gefd| "A"cA (3.A.A.A "Em"BG (3.G.G.G|"A"AF (3.F.F.F GEEA|
"D"D2FD "Em"E2GE|"F#m"FDEF "G"GA (3Bcd|"A"efge cAGE | EDCE "D"DGFE |]
